X: 3
T:LES AUTRICHIENS A VIRIAT
M:2/4
L:1/16
Q:96
C:trad. Bresse
R:scottish
K:C
"A   ( play AABA )" c2BA|G2G2 f2f2|e4 d2ed|c2G2 A2B2|c4||!
"B" c2ce|g2g2 e2c2|g4 c2cd|e4 gfef|d4||
